X: 788
T: Aisling's
R: reel
M: 4/4
K: Gdorian
|:G,B,DG FC3|GBdB c2Bc|dg3 gabg|gdfc dBcA|
BGDE F2EF|GBdB c2Bc|dg3 gaba|1 gdcA GDCD:|2 gdcA GABd||
dg3 fcc2|gaba gdcA|G2BG AD3|EGBc def2|
d2gd bdgd|cA^FA DGBc|dg3 faba|gdcA GABc|
dg3 fcc2|gaba gdcA|G2BG AD3|EGBc dbaf|
d2gd bdgd|cA^FA G2Bc|dg3 faba|gdcA GDCD||

